material/.icons/material/feature-search.svg

<svg xmlns="http://www.w3.org/2000/svg" viewBox="0 0 24 24"><path d="M20 20a2 2 0 01-2 2H4a2 2 0 01-2-2V6a2 2 0 012-2h5.5c-.3.8-.5 1.6-.5 2.5 0 3.6 2.9 6.5 6.5 6.5.8 0 1.5-.1 2.1-.4L20 15v5m-.7-11.1c.4-.7.7-1.5.7-2.4C20 4 18 2 15.5 2S11 4 11 6.5s2 4.5 4.5 4.5c.9 0 1.7-.3 2.4-.7l3.1 3.1 1.4-1.4-3.1-3.1m-3.8.1C14.1 9 13 7.9 13 6.5S14.1 4 15.5 4 18 5.1 18 6.5 16.9 9 15.5 9z"/></svg>

<?xml version="1.0" encoding="UTF-8"?><!DOCTYPE svg PUBLIC "-//W3C//DTD SVG 1.1//EN" "http://www.w3.org/Graphics/SVG/1.1/DTD/svg11.dtd"><svg xmlns="http://www.w3.org/2000/svg" xmlns:xlink="http://www.w3.org/1999/xlink" version="1.1" id="mdi-feature-search" width="24" height="24" viewBox="0 0 24 24"><path d="M20,20A2,2 0 0,1 18,22H4A2,2 0 0,1 2,20V6A2,2 0 0,1 4,4H9.5C9.2,4.8 9,5.6 9,6.5C9,10.1 11.9,13 15.5,13C16.3,13 17,12.9 17.6,12.6L20,15V20M19.3,8.9C19.7,8.2 20,7.4 20,6.5C20,4 18,2 15.5,2C13,2 11,4 11,6.5C11,9 13,11 15.5,11C16.4,11 17.2,10.7 17.9,10.3L21,13.4L22.4,12L19.3,8.9M15.5,9C14.1,9 13,7.9 13,6.5C13,5.1 14.1,4 15.5,4C16.9,4 18,5.1 18,6.5C18,7.9 16.9,9 15.5,9Z" /></svg>
